X: 141007
Q: "Lively."
M: 6/8
L: 1/8
K: G
uD |\
e>cA A>BA | e3 uc2ue | d>BG G>AG | d3 Bcd |\
e>cA A>BA | a3 uf2uf | g>dB cAF | G3 G2 |]


